svg/fluentui-system-icons/ic_fluent_star_dismiss_24_regular.svg

<svg width="24" height="24" viewBox="0 0 24 24" fill="none" xmlns="http://www.w3.org/2000/svg">
<path d="M10.7878 3.10312C11.283 2.09975 12.7138 2.09974 13.209 3.10312L15.567 7.88085L20.8395 8.64699C21.9468 8.80789 22.3889 10.1687 21.5877 10.9497L20.6827 11.8318C20.2104 11.566 19.7016 11.3576 19.1656 11.2159L20.323 10.0877L15.2732 9.35392C14.8335 9.29002 14.4534 9.01385 14.2568 8.61541L11.9984 4.03952L9.74008 8.61541C9.54344 9.01385 9.16332 9.29002 8.72361 9.35392L3.67382 10.0877L7.32788 13.6495C7.64606 13.9597 7.79125 14.4065 7.71614 14.8445L6.85353 19.8739L11.0028 17.6925C11.0185 18.2348 11.1007 18.7605 11.2414 19.2617L7.28252 21.343C6.29213 21.8637 5.13459 21.0227 5.32374 19.9198L6.2244 14.6686L2.40916 10.9497C1.60791 10.1687 2.05005 8.80789 3.15735 8.64699L8.42988 7.88085L10.7878 3.10312ZM23 17.5005C23 20.5381 20.5376 23.0005 17.5 23.0005C14.4624 23.0005 12 20.5381 12 17.5005C12 14.4629 14.4624 12.0005 17.5 12.0005C20.5376 12.0005 23 14.4629 23 17.5005ZM15.8536 15.1469C15.6583 14.9517 15.3417 14.9517 15.1464 15.1469C14.9512 15.3422 14.9512 15.6588 15.1464 15.8541L16.7929 17.5005L15.1464 19.1469C14.9512 19.3422 14.9512 19.6588 15.1464 19.8541C15.3417 20.0493 15.6583 20.0493 15.8536 19.8541L17.5 18.2076L19.1464 19.8541C19.3417 20.0493 19.6583 20.0493 19.8536 19.8541C20.0488 19.6588 20.0488 19.3422 19.8536 19.1469L18.2071 17.5005L19.8536 15.8541C20.0488 15.6588 20.0488 15.3422 19.8536 15.1469C19.6583 14.9517 19.3417 14.9517 19.1464 15.1469L17.5 16.7934L15.8536 15.1469Z" fill="#212121"/>
</svg>

<svg xmlns="http://www.w3.org/2000/svg" width="24" height="24"><path d="M10.788 3.103c.495-1.003 1.926-1.003 2.421 0l2.358 4.778 5.273.766c1.107.16 1.549 1.522.748 2.303l-.905.882a6.457 6.457 0 0 0-1.517-.616l1.157-1.128-5.05-.734a1.35 1.35 0 0 1-1.016-.739L11.998 4.04 9.74 8.615a1.35 1.35 0 0 1-1.016.739l-5.05.734 3.654 3.562c.318.31.463.756.388 1.194l-.862 5.03 4.149-2.181c.015.542.098 1.067.238 1.569l-3.958 2.081c-.99.52-2.148-.32-1.96-1.423l.901-5.251-3.815-3.72c-.801-.78-.359-2.141.748-2.302l5.273-.766 2.358-4.778ZM23 17.5a5.5 5.5 0 1 1-11 0 5.5 5.5 0 0 1 11 0Zm-7.146-2.353a.5.5 0 0 0-.708.707l1.647 1.646-1.647 1.647a.5.5 0 0 0 .708.707l1.646-1.646 1.646 1.646a.5.5 0 0 0 .708-.707L18.207 17.5l1.647-1.647a.5.5 0 0 0-.708-.707L17.5 16.793l-1.646-1.646Z"/></svg>
